<?xml version="1.0" encoding="UTF-8"?>
<map version="1.10" tiledversion="1.12.2" orientation="orthogonal" renderorder="right-down" width="30" height="30" tilewidth="32" tileheight="32" infinite="0" nextlayerid="9" nextobjectid="1">
 <tileset firstgid="1" name="skill-foreground" tilewidth="32" tileheight="32" tilecount="24" columns="8">
  <image source="../parallax-industrial-web/parallax-industrial-web/Assets/Layers/skill-foreground.png" width="272" height="104"/>
 </tileset>
 <tileset firstgid="25" name="Fading_Sky-Sunset_04-512x512" tilewidth="32" tileheight="32" tilecount="256" columns="16">
  <image source="../SBS - Seamless Sky Backgrounds - 512x512/512x512/Fading Sky/Fading_Sky-Sunset_04-512x512.png" width="512" height="512"/>
 </tileset>
 <tileset firstgid="281" name="far-buildings" tilewidth="32" tileheight="32" tilecount="48" columns="8">
  <image source="../cyberpunk-street-files/cyberpunk-street-files/Assets/Version 1/PNG/layers/far-buildings.png" width="256" height="192"/>
 </tileset>
 <tileset firstgid="329" name="foreground" tilewidth="32" tileheight="32" tilecount="168" columns="21">
  <image source="../cyberpunk-street-files/cyberpunk-street-files/Assets/Version 2/Layers/foreground.png" width="688" height="272"/>
 </tileset>
 <tileset firstgid="497" name="foreground-empty" tilewidth="32" tileheight="32" tilecount="168" columns="21">
  <image source="../cyberpunk-street-files/cyberpunk-street-files/Assets/Version 2/Layers/foreground-empty.png" width="688" height="272"/>
 </tileset>
 <tileset firstgid="665" name="middle" tilewidth="32" tileheight="32" tilecount="64" columns="8">
  <image source="../cyberpunk-street-files/cyberpunk-street-files/Assets/Version 2/Layers/middle.png" width="256" height="272"/>
 </tileset>
 <tileset firstgid="729" name="buildings" tilewidth="32" tileheight="32" tilecount="54" columns="9">
  <image source="../cyberpunk-street-files/cyberpunk-street-files/Assets/city skyline/Layers/buildings.png" width="288" height="192"/>
 </tileset>
 <tileset firstgid="783" name="front" tilewidth="32" tileheight="32" tilecount="54" columns="9">
  <image source="../cyberpunk-street-files/cyberpunk-street-files/Assets/city skyline/Layers/front.png" width="288" height="192"/>
 </tileset>
 <tileset firstgid="837" name="back-buildings" tilewidth="32" tileheight="32" tilecount="48" columns="8">
  <image source="../cyberpunk-street-files/cyberpunk-street-files/Assets/Version 1/PNG/layers/back-buildings.png" width="256" height="192"/>
 </tileset>
 <tileset firstgid="885" name="2" tilewidth="32" tileheight="32" tilecount="180" columns="18">
  <image source="../free-scrolling-city-backgrounds-pixel-art/1 Backgrounds/1/Night/2.png" width="576" height="324"/>
 </tileset>
 <tileset firstgid="1065" name="3" tilewidth="32" tileheight="32" tilecount="180" columns="18">
  <image source="../free-scrolling-city-backgrounds-pixel-art/1 Backgrounds/1/Night/3.png" width="576" height="324"/>
 </tileset>
 <tileset firstgid="1245" name="4" tilewidth="32" tileheight="32" tilecount="180" columns="18">
  <image source="../free-scrolling-city-backgrounds-pixel-art/1 Backgrounds/1/Night/4.png" width="576" height="324"/>
 </tileset>
 <tileset firstgid="1425" name="5" tilewidth="32" tileheight="32" tilecount="180" columns="18">
  <image source="../free-scrolling-city-backgrounds-pixel-art/1 Backgrounds/1/Night/5.png" width="576" height="324"/>
 </tileset>
 <tileset firstgid="1605" name="front" tilewidth="32" tileheight="32" tilecount="54" columns="9">
  <image source="../cyberpunk-street-files/cyberpunk-street-files/Assets/city skyline/Layers/front.png" width="288" height="192"/>
 </tileset>
 <tileset firstgid="1659" name="city" tilewidth="32" tileheight="32" tilecount="168" columns="21">
  <image source="../cyberpunk-street-files/cyberpunk-street-files/Assets/Version 2/Previews/city.png" width="688" height="272"/>
 </tileset>
 <tileset firstgid="1827" name="foreground" tilewidth="32" tileheight="32" tilecount="66" columns="11">
  <image source="../cyberpunk-street-files/cyberpunk-street-files/Assets/Version 1/PNG/layers/foreground.png" width="352" height="192"/>
 </tileset>
 <tileset firstgid="1893" name="front" tilewidth="32" tileheight="32" tilecount="54" columns="9">
  <image source="../cyberpunk-street-files/cyberpunk-street-files/Assets/city skyline/Layers/front.png" width="288" height="192"/>
 </tileset>
 <tileset firstgid="1947" name="back" tilewidth="32" tileheight="32" tilecount="54" columns="9">
  <image source="../cyberpunk-street-files/cyberpunk-street-files/Assets/city skyline/Layers/back.png" width="288" height="192"/>
 </tileset>
 <tileset firstgid="2001" name="back-buildings" tilewidth="32" tileheight="32" tilecount="48" columns="8">
  <image source="../cyberpunk-street-files/cyberpunk-street-files/Assets/Version 1/PNG/layers/back-buildings.png" width="256" height="192"/>
 </tileset>
 <tileset firstgid="2049" name="far-buildings" tilewidth="32" tileheight="32" tilecount="48" columns="8">
  <image source="../cyberpunk-street-files/cyberpunk-street-files/Assets/Version 1/PNG/layers/far-buildings.png" width="256" height="192"/>
 </tileset>
 <tileset firstgid="2097" name="back" tilewidth="32" tileheight="32" tilecount="24" columns="3">
  <image source="../cyberpunk-street-files/cyberpunk-street-files/Assets/Version 2/Layers/back.png" width="112" height="272"/>
 </tileset>
 <group id="5" name="Agrupar 1">
  <layer id="1" name="Camada de Blocos 1" width="30" height="30">
   <data encoding="csv">
0,0,0,0,0,0,0,0,0,0,0,0,0,0,0,0,0,0,0,0,0,0,0,0,0,0,0,0,0,0,
0,0,0,0,0,0,0,0,0,0,0,0,0,0,0,0,0,0,0,0,0,0,0,0,0,0,0,0,0,0,
0,0,0,0,0,0,0,0,0,0,0,0,0,0,0,0,0,0,0,0,0,0,0,0,0,0,0,0,0,0,
0,0,0,0,0,0,0,0,0,0,0,0,0,0,0,0,0,0,0,0,0,0,0,0,0,0,0,0,0,0,
0,0,0,0,0,0,0,0,0,0,0,0,0,0,0,0,0,0,0,0,0,0,0,0,0,0,0,0,0,0,
0,0,0,335,336,337,337,0,335,336,337,337,337,337,337,337,337,0,0,0,0,0,0,0,0,0,0,0,0,0,
336,337,335,335,336,337,358,337,335,335,335,336,337,358,358,358,358,337,337,337,337,337,337,337,337,337,0,0,0,0,
336,337,356,356,335,335,335,335,356,356,356,335,335,335,335,336,337,358,358,358,358,358,358,358,358,358,337,337,337,337,
336,337,377,377,356,356,356,356,377,377,377,356,356,356,356,335,335,335,335,335,335,336,337,379,379,379,358,358,358,337,
336,337,379,335,377,377,377,377,377,377,356,377,335,336,337,356,356,356,356,356,356,335,335,335,335,335,336,337,379,358,
336,337,335,336,337,377,378,379,379,337,377,335,335,335,336,337,377,377,377,377,377,356,356,356,356,356,335,335,335,335,
335,336,335,335,336,337,377,378,379,358,337,356,356,335,336,337,337,337,337,337,337,337,337,337,337,337,337,337,337,337,
335,336,356,356,335,335,377,378,379,379,358,377,335,336,337,337,358,358,358,358,358,358,358,358,358,358,358,358,358,358,
335,335,377,377,356,356,356,377,378,379,379,377,335,336,337,358,379,379,379,379,379,379,379,379,379,379,379,379,379,379,
335,335,335,335,377,377,377,377,377,378,379,379,335,336,337,335,335,335,335,335,335,335,335,335,335,335,335,335,335,335,
356,356,356,356,356,356,356,356,356,377,378,379,356,357,358,356,356,356,356,356,356,356,356,356,356,356,356,356,356,356,
2097,2098,2099,2097,2098,2099,2097,2098,2099,2097,2098,2099,2097,2098,2099,2097,2098,2099,2097,2098,2099,2097,2098,2099,2097,2098,2099,2097,2098,2099,
2100,2101,2102,2100,2101,2102,2100,2101,2102,2100,2101,2102,2100,2101,2102,2100,2101,2102,2100,2101,2102,2100,2101,2102,2100,2101,2102,2100,2101,2102,
2103,2104,2105,2103,2104,2105,2103,2104,2105,2103,2104,2105,2103,2104,2105,2103,2104,2105,2103,2104,2105,2103,2104,2105,2103,2104,2105,2103,2104,2105,
2106,2107,2108,2106,2107,2108,2106,2107,2108,2106,2107,2108,2106,2107,2108,2106,2107,2108,2106,2107,2108,2106,2107,2108,2106,2107,2108,2106,2107,2108,
2109,2110,2111,2109,2110,2111,2109,2110,2111,2109,2110,2111,2109,2110,2111,2109,2110,2111,2109,2110,2111,2109,2110,2111,2109,2110,2111,2109,2110,2111,
2112,2113,2114,2112,2113,2114,2112,2113,2114,2112,2113,2114,2112,2113,2114,2112,2113,2114,2112,2113,2114,2112,2113,2114,2112,2113,2114,2112,2113,2114,
2115,2116,2117,2115,2116,2117,2115,2116,2117,2115,2116,2117,2115,2116,2117,2115,2116,2117,2115,2116,2117,2115,2116,2117,2115,2116,2117,2115,2116,2117,
2118,2119,2120,2118,2119,2120,2118,2119,2120,2118,2119,2120,2118,2119,2120,2118,2119,2120,2118,2119,2120,2118,2119,2120,2118,2119,2120,2118,2119,2120,
0,0,0,0,0,0,0,0,0,0,0,0,0,0,0,0,0,0,0,0,0,0,0,0,0,0,0,0,0,0,
0,0,0,0,0,0,0,0,0,0,0,0,0,0,0,0,0,0,0,0,0,0,0,0,0,0,0,0,0,0,
0,0,0,0,0,0,0,0,0,0,0,0,0,0,0,0,0,0,0,0,0,0,0,0,0,0,0,0,0,0,
0,0,0,0,0,0,0,0,0,0,0,0,0,0,0,0,0,0,0,0,0,0,0,0,0,0,0,0,0,0,
0,0,0,0,0,0,0,0,0,0,0,0,0,0,0,0,0,0,0,0,0,0,0,0,0,0,0,0,0,0,
0,0,0,0,0,0,0,0,0,0,0,0,0,0,0,0,0,0,0,0,0,0,0,0,0,0,0,0,0,0
</data>
  </layer>
  <layer id="3" name="Camada de Blocos 3" width="30" height="30">
   <data encoding="csv">
0,0,0,0,0,0,0,0,0,0,0,0,0,0,0,0,0,0,0,0,0,0,0,0,0,0,0,0,0,0,
0,0,0,0,0,0,0,0,0,0,0,0,0,0,0,0,0,0,0,0,0,0,0,0,0,0,0,0,0,0,
0,0,0,0,0,0,0,0,0,0,0,0,0,0,0,0,0,0,0,0,0,0,0,0,0,0,0,0,0,0,
0,0,0,0,0,0,0,0,0,0,0,0,0,0,0,0,0,0,0,0,0,0,0,0,0,0,0,0,0,0,
0,0,0,0,0,0,0,0,0,0,0,0,0,0,0,0,0,0,0,0,0,0,0,0,0,0,0,0,0,0,
0,0,0,0,0,0,0,0,0,0,0,0,0,0,0,0,0,0,0,0,0,0,0,0,0,0,0,0,0,0,
0,0,0,0,0,0,0,0,0,0,0,0,0,0,0,0,0,0,0,0,0,0,0,0,0,0,0,0,0,0,
0,0,0,0,0,0,0,0,0,0,0,0,0,0,0,0,0,0,0,0,0,0,0,0,0,0,0,0,0,0,
0,0,0,0,0,0,0,0,0,0,0,0,0,0,0,0,0,0,0,0,0,0,0,0,0,0,0,0,0,0,
0,0,0,0,0,0,0,0,0,0,0,0,0,0,0,0,0,0,0,0,0,0,0,0,0,0,0,0,0,0,
0,0,0,0,0,0,0,0,0,0,0,0,0,0,0,0,0,0,0,0,0,0,0,0,0,0,0,0,0,0,
0,0,0,0,0,0,0,0,0,0,0,0,0,0,0,0,0,0,0,0,0,0,0,0,0,0,0,0,0,0,
0,0,0,0,0,0,0,0,0,0,0,0,0,0,0,0,0,0,0,0,0,0,0,0,0,0,0,0,0,0,
0,0,0,0,0,0,0,0,0,0,0,0,0,0,0,0,0,0,0,0,0,0,0,0,0,0,0,0,0,0,
0,0,0,0,0,0,0,0,0,0,0,0,0,0,0,0,0,0,0,0,0,0,0,0,0,0,0,0,0,0,
0,0,0,0,0,0,0,0,0,0,0,0,0,0,0,0,0,0,0,0,0,0,0,0,0,0,0,0,0,0,
0,0,0,0,0,0,0,0,0,0,0,0,0,0,0,0,0,0,0,0,0,0,0,0,0,0,0,0,0,0,
729,730,731,732,733,734,735,736,737,729,730,731,732,733,734,735,736,737,729,730,731,732,733,734,735,736,737,729,730,731,
738,739,740,741,742,743,744,745,746,738,739,740,741,742,743,744,745,746,738,739,740,741,742,743,744,745,746,738,739,740,
747,748,749,750,751,752,753,754,755,747,748,749,750,751,752,753,754,755,747,748,749,750,751,752,753,754,755,747,748,749,
756,757,758,759,760,761,762,763,764,756,757,758,759,760,761,762,763,764,756,757,758,759,760,761,762,763,764,756,757,758,
765,766,767,768,769,770,771,772,773,765,766,767,768,769,770,771,772,773,765,766,767,768,769,770,771,772,773,765,766,767,
774,775,776,777,778,779,780,781,782,774,775,776,777,778,779,780,781,782,774,775,776,777,778,779,780,781,782,774,775,776,
0,0,0,0,0,0,0,0,0,0,0,0,0,0,0,0,0,0,0,0,0,0,0,0,0,0,0,0,0,0,
0,0,0,0,0,0,0,0,0,0,0,0,0,0,0,0,0,0,0,0,0,0,0,0,0,0,0,0,0,0,
0,0,0,0,0,0,0,0,0,0,0,0,0,0,0,0,0,0,0,0,0,0,0,0,0,0,0,0,0,0,
0,0,0,0,0,0,0,0,0,0,0,0,0,0,0,0,0,0,0,0,0,0,0,0,0,0,0,0,0,0,
0,0,0,0,0,0,0,0,0,0,0,0,0,0,0,0,0,0,0,0,0,0,0,0,0,0,0,0,0,0,
0,0,0,0,0,0,0,0,0,0,0,0,0,0,0,0,0,0,0,0,0,0,0,0,0,0,0,0,0,0,
0,0,0,0,0,0,0,0,0,0,0,0,0,0,0,0,0,0,0,0,0,0,0,0,0,0,0,0,0,0
</data>
  </layer>
  <layer id="2" name="Camada de Blocos 2" width="30" height="30">
   <data encoding="csv">
0,0,0,0,0,0,0,0,0,0,0,0,0,0,0,0,0,0,0,0,0,0,0,0,0,0,0,0,0,0,
0,0,0,0,0,0,0,0,0,0,0,0,0,0,0,0,0,0,0,0,0,0,0,0,0,0,0,0,0,0,
0,0,0,0,0,0,0,0,0,0,0,0,0,0,0,0,0,0,0,0,0,0,0,0,0,0,0,0,0,0,
0,0,0,0,0,0,0,0,0,0,0,0,0,0,0,0,0,0,0,0,0,0,0,0,0,0,0,0,0,0,
0,0,0,0,0,0,0,0,0,0,0,0,0,0,0,0,0,0,0,0,0,0,0,0,0,0,0,0,0,0,
0,0,0,0,0,0,0,0,0,0,0,0,0,0,0,0,0,0,0,0,0,0,0,0,0,0,0,0,0,0,
0,0,0,0,0,0,0,0,0,0,0,0,0,0,0,0,0,0,0,0,0,0,0,0,0,0,0,0,0,0,
0,0,0,0,0,0,0,0,0,0,0,0,0,0,0,0,0,0,0,0,0,0,0,0,0,0,0,0,0,0,
0,0,0,0,0,0,0,0,0,0,0,0,0,0,0,0,0,0,0,0,0,0,0,0,0,0,0,0,0,0,
0,0,0,0,0,0,0,0,0,0,0,0,0,0,0,0,0,0,0,0,0,0,0,0,0,0,0,0,0,0,
0,0,0,0,0,0,0,0,0,0,0,0,0,0,0,0,0,0,0,0,0,0,0,0,0,0,0,0,0,0,
0,0,0,0,0,0,0,0,0,0,0,0,0,0,0,0,0,0,0,0,0,0,0,0,0,0,0,0,0,0,
0,0,0,0,0,0,0,0,0,0,0,0,0,0,0,0,0,0,0,0,0,0,0,0,0,0,0,0,0,0,
0,0,0,0,0,0,0,0,0,0,0,0,0,0,0,0,0,0,0,0,0,0,0,0,0,0,0,0,0,0,
0,0,0,0,0,0,0,0,0,0,0,0,0,0,0,0,0,0,0,0,0,0,0,0,0,0,0,0,0,0,
0,0,0,0,0,0,0,0,0,0,0,0,0,0,0,0,0,0,0,0,0,0,0,0,0,0,0,0,0,0,
0,0,0,0,0,0,0,0,0,0,0,0,0,0,0,0,0,0,0,0,0,0,0,0,0,0,0,0,0,0,
0,0,0,0,0,0,0,0,0,0,0,0,0,0,0,0,0,0,0,0,0,0,0,0,0,0,0,0,0,0,
665,666,667,668,669,670,671,672,665,666,667,668,669,670,671,672,665,666,667,668,669,670,671,672,665,666,667,668,669,670,
673,674,675,676,677,678,679,680,673,674,675,676,677,678,679,680,673,674,675,676,677,678,679,680,673,674,675,676,677,678,
681,682,683,684,685,686,687,688,681,682,683,684,685,686,687,688,681,682,683,684,685,686,687,688,681,682,683,684,685,686,
689,690,691,692,693,694,695,696,689,690,691,692,693,694,695,696,689,690,691,692,693,694,695,696,689,690,691,692,693,694,
697,698,699,700,701,702,703,704,697,698,699,700,701,702,703,704,697,698,699,700,701,702,703,704,697,698,699,700,701,702,
0,0,0,0,0,0,0,0,0,0,0,0,0,0,0,0,0,0,0,0,0,0,0,0,0,0,0,0,0,0,
0,0,0,0,0,0,0,0,0,0,0,0,0,0,0,0,0,0,0,0,0,0,0,0,0,0,0,0,0,0,
0,0,0,0,0,0,0,0,0,0,0,0,0,0,0,0,0,0,0,0,0,0,0,0,0,0,0,0,0,0,
0,0,0,0,0,0,0,0,0,0,0,0,0,0,0,0,0,0,0,0,0,0,0,0,0,0,0,0,0,0,
0,0,0,0,0,0,0,0,0,0,0,0,0,0,0,0,0,0,0,0,0,0,0,0,0,0,0,0,0,0,
0,0,0,0,0,0,0,0,0,0,0,0,0,0,0,0,0,0,0,0,0,0,0,0,0,0,0,0,0,0,
0,0,0,0,0,0,0,0,0,0,0,0,0,0,0,0,0,0,0,0,0,0,0,0,0,0,0,0,0,0
</data>
  </layer>
  <layer id="4" name="Camada de Blocos 4" width="30" height="30">
   <data encoding="csv">
0,0,0,0,0,0,0,0,0,0,0,0,0,0,0,0,0,0,0,0,0,0,0,0,0,0,0,0,0,0,
0,0,0,0,0,0,0,0,0,0,0,0,0,0,0,0,0,0,0,0,0,0,0,0,0,0,0,0,0,0,
0,0,0,0,0,0,0,0,0,0,0,0,0,0,0,0,0,0,0,0,0,0,0,0,0,0,0,0,0,0,
0,0,0,0,0,0,0,0,0,0,0,0,0,0,0,0,0,0,0,0,0,0,0,0,0,0,0,0,0,0,
0,0,0,0,0,0,0,0,0,0,0,0,0,0,0,0,0,0,0,0,0,0,0,0,0,0,0,0,0,0,
0,0,0,0,0,0,0,0,0,0,0,0,0,0,0,0,0,0,0,0,0,0,0,0,0,0,0,0,0,0,
0,0,0,0,0,0,0,0,0,0,0,0,0,0,0,0,0,0,0,0,0,0,0,0,0,0,0,0,0,0,
0,0,0,0,0,0,0,0,0,0,0,0,0,0,0,0,0,0,0,0,0,0,0,0,0,0,0,0,0,0,
0,0,0,0,0,0,0,0,0,0,0,0,0,0,0,0,0,0,0,0,0,0,0,0,0,0,0,0,0,0,
0,0,0,0,0,0,0,0,0,0,0,0,0,0,0,0,0,0,0,0,0,0,0,0,0,0,0,0,0,0,
0,0,0,0,0,0,0,0,0,0,0,0,0,0,0,0,0,0,0,0,0,0,0,0,0,0,0,0,0,0,
0,0,0,0,0,0,0,0,0,0,0,0,0,0,0,0,0,0,0,0,0,0,0,0,0,0,0,0,0,0,
0,0,0,0,0,0,0,0,0,0,0,0,0,0,0,0,0,0,0,0,0,0,0,0,0,0,0,0,0,0,
0,0,0,0,0,0,0,0,0,0,0,0,0,0,0,0,0,0,0,0,0,0,0,0,0,0,0,0,0,0,
0,0,0,0,0,0,0,0,0,0,0,0,0,0,0,0,0,0,0,0,0,0,0,0,0,0,0,0,0,0,
0,0,0,0,0,0,0,0,0,0,0,0,0,0,0,0,0,0,0,0,0,0,0,0,0,0,0,0,0,0,
0,0,0,0,0,0,0,0,0,0,0,0,0,0,0,0,0,0,0,0,0,0,0,0,0,0,0,0,0,0,
0,0,0,0,0,0,0,0,0,0,0,0,0,0,0,0,0,0,0,0,0,0,0,0,0,0,0,0,0,0,
839,840,841,842,843,844,837,838,839,840,841,842,843,844,837,838,839,840,841,842,843,844,837,838,839,840,841,842,843,844,
847,848,849,850,851,852,845,846,847,848,849,850,851,852,845,846,847,848,849,850,851,852,845,846,847,848,849,850,851,852,
855,856,857,858,859,860,853,854,855,856,857,858,859,860,853,854,855,856,857,858,859,860,853,854,855,856,857,858,859,860,
863,864,865,866,867,868,861,862,863,864,865,866,867,868,861,862,863,864,865,866,867,868,861,862,863,864,865,866,867,868,
871,872,873,874,875,876,869,870,871,872,873,874,875,876,869,870,871,872,873,874,875,876,869,870,871,872,873,874,875,876,
0,0,0,0,0,0,0,0,0,0,0,0,0,0,0,0,0,0,0,0,0,0,0,0,0,0,0,0,0,0,
0,0,0,0,0,0,0,0,0,0,0,0,0,0,0,0,0,0,0,0,0,0,0,0,0,0,0,0,0,0,
0,0,0,0,0,0,0,0,0,0,0,0,0,0,0,0,0,0,0,0,0,0,0,0,0,0,0,0,0,0,
0,0,0,0,0,0,0,0,0,0,0,0,0,0,0,0,0,0,0,0,0,0,0,0,0,0,0,0,0,0,
0,0,0,0,0,0,0,0,0,0,0,0,0,0,0,0,0,0,0,0,0,0,0,0,0,0,0,0,0,0,
0,0,0,0,0,0,0,0,0,0,0,0,0,0,0,0,0,0,0,0,0,0,0,0,0,0,0,0,0,0,
0,0,0,0,0,0,0,0,0,0,0,0,0,0,0,0,0,0,0,0,0,0,0,0,0,0,0,0,0,0
</data>
  </layer>
  <layer id="8" name="Camada de Blocos 7" width="30" height="30">
   <data encoding="csv">
0,0,0,0,0,0,0,0,0,0,0,0,0,0,0,0,0,0,0,0,0,0,0,0,0,0,0,0,0,0,
0,0,0,0,0,0,0,0,0,0,0,0,0,0,0,0,0,0,0,0,0,0,0,0,0,0,0,0,0,0,
0,0,0,0,0,0,0,0,0,0,0,0,0,0,0,0,0,0,0,0,0,0,0,0,0,0,0,0,0,0,
0,0,0,0,0,0,0,0,0,0,0,0,0,0,0,0,0,0,0,0,0,0,0,0,0,0,0,0,0,0,
0,0,0,0,0,0,0,0,0,0,0,0,0,0,0,0,0,0,0,0,0,0,0,0,0,0,0,0,0,0,
0,0,0,0,0,0,0,0,0,0,0,0,0,0,0,0,0,0,0,0,0,0,0,0,0,0,0,0,0,0,
0,0,0,0,0,0,0,0,0,0,0,0,0,0,0,0,0,0,0,0,0,0,0,0,0,0,0,0,0,0,
0,0,0,0,0,0,0,0,0,0,0,0,0,0,0,0,0,0,0,0,0,0,0,0,0,0,0,0,0,0,
0,0,0,0,0,0,0,0,0,0,0,0,0,0,0,0,0,0,0,0,0,0,0,0,0,0,0,0,0,0,
0,0,0,0,0,0,0,0,0,0,0,0,0,0,0,0,0,0,0,0,0,0,0,0,0,0,0,0,0,0,
0,0,0,0,0,0,0,0,0,0,0,0,0,0,0,0,0,0,0,0,0,0,0,0,0,0,0,0,0,0,
0,0,0,0,0,0,0,0,0,0,0,0,0,0,0,0,0,0,0,0,0,0,0,0,0,0,0,0,0,0,
0,0,0,0,0,0,0,0,0,0,0,0,0,0,0,0,0,0,0,0,0,0,0,0,0,0,0,0,0,0,
0,0,0,0,0,0,0,0,0,0,0,0,0,0,0,0,0,0,0,0,0,0,0,0,0,0,0,0,0,0,
0,0,0,0,0,0,0,0,0,0,0,0,0,0,0,0,0,0,0,0,0,0,0,0,0,0,0,0,0,0,
0,0,0,0,0,0,0,0,0,0,0,0,0,0,0,0,0,0,0,0,0,0,0,0,0,0,0,0,0,0,
0,0,0,0,0,0,0,0,0,0,0,0,0,0,0,0,0,0,0,0,0,0,0,0,0,0,0,0,0,0,
0,0,0,0,0,0,0,0,0,0,0,0,0,0,0,0,0,0,0,0,0,0,0,0,0,0,0,0,0,0,
0,0,0,0,0,0,0,0,0,0,0,0,0,0,0,0,0,0,0,0,0,0,0,0,0,0,0,0,0,0,
0,0,0,0,0,0,0,0,0,0,0,0,0,0,0,0,0,0,0,0,0,0,0,0,0,0,0,0,0,0,
0,0,0,0,0,0,0,0,0,0,0,0,0,0,0,0,0,0,0,0,0,0,0,0,0,0,0,0,0,0,
0,0,0,0,0,0,0,0,0,0,0,0,0,0,0,0,0,0,0,0,0,0,0,0,0,0,0,0,0,0,
821,822,823,824,825,826,827,821,822,823,824,825,826,827,820,821,822,823,824,825,826,827,820,821,822,823,824,825,826,827,
830,831,832,833,834,835,836,830,831,832,833,834,835,836,829,830,831,832,833,834,835,836,829,830,831,832,833,834,835,836,
0,0,0,0,0,0,0,0,0,0,0,0,0,0,0,0,0,0,0,0,0,0,0,0,0,0,0,0,0,0,
0,0,0,0,0,0,0,0,0,0,0,0,0,0,0,0,0,0,0,0,0,0,0,0,0,0,0,0,0,0,
0,0,0,0,0,0,0,0,0,0,0,0,0,0,0,0,0,0,0,0,0,0,0,0,0,0,0,0,0,0,
0,0,0,0,0,0,0,0,0,0,0,0,0,0,0,0,0,0,0,0,0,0,0,0,0,0,0,0,0,0,
0,0,0,0,0,0,0,0,0,0,0,0,0,0,0,0,0,0,0,0,0,0,0,0,0,0,0,0,0,0,
0,0,0,0,0,0,0,0,0,0,0,0,0,0,0,0,0,0,0,0,0,0,0,0,0,0,0,0,0,0
</data>
  </layer>
 </group>
 <layer id="6" name="Camada de Blocos 5" width="30" height="30">
  <data encoding="csv">
0,0,0,0,0,0,0,0,0,0,0,0,0,0,0,0,0,0,0,0,0,0,0,0,0,0,0,0,0,0,
0,0,0,0,0,0,0,0,0,0,0,0,0,0,0,0,0,0,0,0,0,0,0,0,0,0,0,0,0,0,
0,0,0,0,0,0,0,0,0,0,0,0,0,0,0,0,0,0,0,0,0,0,0,0,0,0,0,0,0,0,
0,0,0,0,0,0,0,0,0,0,0,0,0,0,0,0,0,0,0,0,0,0,0,0,0,0,0,0,0,0,
0,0,0,0,0,0,0,0,0,0,0,0,0,0,0,0,0,0,0,0,0,0,0,0,0,0,0,0,0,0,
0,0,0,0,0,0,0,0,0,0,0,0,0,0,0,0,0,0,0,0,0,0,0,0,0,0,0,0,0,0,
0,0,0,0,0,0,0,0,0,0,0,0,0,0,0,0,0,0,0,0,0,0,0,0,0,0,0,0,0,0,
0,0,0,0,0,0,0,0,0,0,0,0,0,0,0,0,0,0,0,0,0,0,0,0,0,0,0,0,0,0,
0,0,0,0,0,0,0,0,0,0,0,0,0,0,0,0,0,0,0,0,0,0,0,0,0,0,0,0,0,0,
0,0,0,0,0,0,0,0,0,0,0,0,0,0,0,0,0,0,0,0,0,0,0,0,0,0,0,0,0,0,
0,0,0,0,0,0,0,0,0,0,0,0,0,0,0,0,0,0,0,0,0,0,0,0,0,0,0,0,0,0,
0,0,0,0,0,0,0,0,0,0,0,0,0,0,0,0,0,0,0,0,0,0,0,0,0,0,0,0,0,0,
0,0,0,0,0,0,0,0,0,0,0,0,0,0,0,0,0,0,0,0,0,0,0,0,0,0,0,0,0,0,
0,0,0,0,0,0,0,0,0,0,0,0,0,0,0,0,0,0,0,0,0,0,0,0,0,0,0,0,0,0,
0,0,0,0,0,0,0,0,0,0,0,0,0,0,0,0,0,0,0,0,0,0,0,0,0,0,0,0,0,0,
0,0,0,0,0,0,0,0,0,0,0,0,0,0,0,0,0,0,0,0,0,0,0,0,0,0,0,0,0,0,
0,0,0,0,0,0,0,0,0,0,0,0,0,0,0,0,0,0,0,0,0,0,0,0,0,0,0,0,0,0,
0,0,0,0,0,0,0,0,0,0,0,0,0,0,0,0,0,0,0,0,0,0,0,0,0,0,0,0,0,0,
0,0,0,0,0,0,0,0,0,0,0,0,0,0,0,0,0,0,0,1830,1831,0,0,0,0,0,0,0,0,0,
0,0,0,0,0,0,0,0,0,0,0,0,0,0,0,0,0,0,0,1830,1831,1829,1830,1831,1832,1833,1830,1831,1830,1831,
497,498,499,500,501,502,505,506,507,508,509,510,511,512,513,514,515,516,517,1830,1830,1830,1831,1842,1843,1830,1830,1830,1831,1831,
518,519,520,521,522,523,526,527,528,529,530,531,532,533,534,535,536,537,538,1830,1830,1830,1831,1853,1830,1830,1830,1830,1831,1830,
539,540,541,542,543,544,547,548,549,550,551,552,553,554,555,556,557,558,559,1830,1830,1830,1831,1830,1830,1830,1830,1830,1830,1831,
560,561,562,563,564,565,568,569,570,571,572,573,574,575,576,577,578,579,580,1830,1830,1830,1831,1830,1830,1831,1831,1830,1830,1831,
0,0,0,0,0,0,0,0,0,0,0,0,0,0,0,0,0,0,0,0,0,0,0,0,1830,1830,1831,0,0,0,
0,0,0,0,0,0,0,0,0,0,0,0,0,0,0,0,0,0,0,0,0,0,0,0,0,0,0,0,0,0,
0,0,0,0,0,0,0,0,0,0,0,0,0,0,0,0,0,0,0,0,0,0,0,0,0,0,0,0,0,0,
0,0,0,0,0,0,0,0,0,0,0,0,0,0,0,0,0,0,0,0,0,0,0,0,0,0,0,0,0,0,
0,0,0,0,0,0,0,0,0,0,0,0,0,0,0,0,0,0,0,0,0,0,0,0,0,0,0,0,0,0,
0,0,0,0,0,0,0,0,0,0,0,0,0,0,0,0,0,0,0,0,0,0,0,0,0,0,0,0,0,0
</data>
 </layer>
 <layer id="7" name="Camada de Blocos 6" width="30" height="30">
  <data encoding="csv">
0,0,0,0,0,0,0,0,0,0,0,0,0,0,0,0,0,0,0,0,0,0,0,0,0,0,0,0,0,0,
0,0,0,0,0,0,0,0,0,0,0,0,0,0,0,0,0,0,0,0,0,0,0,0,0,0,0,0,0,0,
0,0,0,0,0,0,0,0,0,0,0,0,0,0,0,0,0,0,0,0,0,0,0,0,0,0,0,0,0,0,
0,0,0,0,0,0,0,0,0,0,0,0,0,0,0,0,0,0,0,0,0,0,0,0,0,0,0,0,0,0,
0,0,0,0,0,0,0,0,0,0,0,0,0,0,0,0,0,0,0,0,0,0,0,0,0,0,0,0,0,0,
0,0,0,0,0,0,0,0,0,0,0,0,0,0,0,0,0,0,0,0,0,0,0,0,0,0,0,0,0,0,
0,0,0,0,0,0,0,0,0,0,0,0,0,0,0,0,0,0,0,0,0,0,0,0,0,0,0,0,0,0,
0,0,0,0,0,0,0,0,0,0,0,0,0,0,0,0,0,0,0,0,0,0,0,0,0,0,0,0,0,0,
0,0,0,0,0,0,0,0,0,0,0,0,0,0,0,0,0,0,0,0,0,0,0,0,0,0,0,0,0,0,
0,0,0,0,0,0,0,0,0,0,0,0,0,0,0,0,0,0,0,0,0,0,0,0,0,0,0,0,0,0,
0,0,0,0,0,0,0,0,0,0,0,0,0,0,0,0,0,0,0,0,0,0,0,0,0,0,0,0,0,0,
0,0,0,0,0,0,0,0,0,0,0,0,0,0,0,0,0,0,0,0,0,0,0,0,0,0,0,0,0,0,
0,0,0,0,0,0,0,0,0,0,0,0,0,0,0,0,0,0,0,0,0,0,0,0,0,0,0,0,0,0,
0,0,0,0,0,0,0,0,0,0,0,0,0,0,0,0,0,0,0,0,0,0,0,0,0,0,0,0,0,0,
0,0,0,0,0,0,0,0,0,0,0,0,0,0,0,0,0,0,0,0,0,0,0,0,0,0,0,0,0,0,
0,0,0,0,0,0,0,0,0,0,0,0,0,0,0,0,0,0,0,0,0,0,0,0,0,0,0,0,0,0,
0,0,0,0,0,0,0,0,0,0,0,0,0,0,0,0,0,0,0,0,0,0,0,0,0,0,0,0,0,0,
0,0,0,0,0,0,0,0,0,0,0,0,0,0,0,0,0,0,0,0,0,0,0,0,0,0,0,0,0,0,
0,0,0,0,0,0,0,0,0,0,0,0,0,0,0,0,0,1830,1830,1830,1831,0,0,0,0,0,0,0,0,0,
0,0,0,0,0,0,0,0,0,0,0,0,0,0,0,0,0,0,1830,1831,1830,1831,1830,1831,1832,1833,1830,1830,1831,1831,
0,0,0,0,1832,1833,1834,1835,1836,1837,1827,1828,1829,1830,0,0,0,0,0,1827,1828,1829,1830,1831,1832,1833,1834,1835,1836,1837,
0,0,0,0,1843,1844,1845,1846,1847,1848,1838,1839,1840,1841,0,0,0,0,0,1838,1839,1840,1841,1842,1843,1844,1845,1846,1847,1848,
0,0,0,0,1854,1855,1856,1857,1858,1859,1849,1850,1851,1852,0,0,0,0,0,1849,1850,1851,1852,1853,1854,1855,1856,1857,1858,1859,
0,0,0,0,1865,1866,1867,1868,1869,1870,1860,1861,1862,1863,0,0,0,0,0,1860,1861,1862,1863,1864,1865,1866,1867,1868,1869,1870,
0,0,0,0,0,0,0,0,0,0,0,0,0,0,0,0,0,0,0,0,0,0,0,1830,1830,1831,0,1830,1830,1831,
0,0,0,0,0,0,0,0,0,0,0,0,0,0,0,0,0,0,0,0,0,0,0,0,0,0,0,1841,1830,1831,
0,0,0,0,0,0,0,0,0,0,0,0,0,0,0,0,0,0,0,0,0,0,0,0,0,0,0,0,1830,1831,
0,0,0,0,0,0,0,0,0,0,0,0,0,0,0,0,0,0,0,0,0,0,0,0,0,0,0,0,0,0,
0,0,0,0,0,0,0,0,0,0,0,0,0,0,0,0,0,0,0,0,0,0,0,0,0,0,0,0,0,0,
0,0,0,0,0,0,0,0,0,0,0,0,0,0,0,0,0,0,0,0,0,0,0,0,0,0,0,0,0,0
</data>
 </layer>
</map>
